X:251
T:Compound Common Time
M:6/8
L:1/8
S:Bruce & Emmett's Drummers and Fifers Guide (1862), p. 25
K:Bm
G|"_1"GBe "_2"dBG|"_1"B2B "_2"B2A|"_1"GBe "_2"dBG|"_1"A2A "_2"A2G|"_1"GBe "_2"dBG|"_1"B2d "_2"g2a|"_1"bag "_2"efg|"_1"dBB "_2"B2::
d|"_1"g2g "_2"gab|"_1"d2d "_2"dBd|"_1"g2g "_2"gab|"_1"e2e "_2"e2d|"_1"def "_2"gfe|"_1"def "_2"g2a|"_1"bag "_2"efg|"_1"dBB "_2"B2:||
